icons/Color/scalable/gimp-tool-flip.svg

<svg height="16" viewBox="0 0 16 16" width="16" xmlns="http://www.w3.org/2000/svg"><g transform="matrix(1.0001054 0 0 .99988465 -.000052 .001793)"><g fill="#729fcf" transform="matrix(-.99978925 0 0 1.0033482 15.998314 -.02763)"><path d="m.47415668.50000006 7.09186162 1.39407454.0401749 12.2118504-7.13203652 1.394075z" style="fill:#729fcf;stroke:#204a87;stroke-width:.948313;stroke-linecap:square;stroke-linejoin:round;stroke-miterlimit:0"/><path d="m1.0391243 1.1777366 5.9619308 1.3212086v11.0021098l-6.04228912 1.321209z" style="opacity:.5;fill:#729fcf;stroke:#fff;stroke-width:.499218;stroke-linecap:square;stroke-linejoin:round;stroke-miterlimit:0"/><path d="m4.1898254 7.2526761h2.1848076v1.7493916h-2.1848076v1.2495653h-.7282687l-2.1112514-2.2492177 2.1112514-1.9993046h.7282687z" fill="#fff" fill-rule="evenodd" stroke="#3465a4" stroke-width=".497"/></g><path d="m.474157 1.974157h7.051687v12.051686h-7.051687z" style="fill:#3465a4;stroke:#204a87;stroke-width:.948313;stroke-linecap:square;stroke-linejoin:round;stroke-miterlimit:0"/><path d="m4.1898254 7.2526761h2.1848076v1.7493916h-2.1848076v1.2495653h-.7282687l-2.1112514-2.2492177 2.1112514-1.9993046h.7282687z" fill="#fff" fill-rule="evenodd" stroke="#3465a4" stroke-width=".496734"/><path d="m.998945 2.498945h6.00211v11.00211h-6.00211z" style="opacity:.5;fill:none;stroke:#fff;stroke-width:.49789;stroke-linecap:square;stroke-linejoin:round;stroke-miterlimit:0"/></g></svg>

<?xml version="1.0" encoding="UTF-8" standalone="no"?>
<!-- Created with Inkscape (http://www.inkscape.org/) -->

<svg
   xmlns:dc="http://purl.org/dc/elements/1.1/"
   xmlns:cc="http://creativecommons.org/ns#"
   xmlns:rdf="http://www.w3.org/1999/02/22-rdf-syntax-ns#"
   xmlns:svg="http://www.w3.org/2000/svg"
   xmlns="http://www.w3.org/2000/svg"
   xmlns:sodipodi="http://sodipodi.sourceforge.net/DTD/sodipodi-0.dtd"
   xmlns:inkscape="http://www.inkscape.org/namespaces/inkscape"
   width="16"
   height="16"
   id="svg11300"
   sodipodi:version="0.32"
   inkscape:version="0.91+devel r"
   sodipodi:docname="gimp-tool-flip.svg"
   version="1.0"
   viewBox="0 0 16 16">
  <sodipodi:namedview
     inkscape:cy="12.992081"
     inkscape:cx="-1.9843915"
     inkscape:zoom="24.893781"
     inkscape:window-height="1016"
     inkscape:window-width="1920"
     inkscape:pageshadow="2"
     inkscape:pageopacity="0.0"
     borderopacity="0.17254902"
     bordercolor="#666"
     pagecolor="#ffffff"
     id="base"
     inkscape:showpageshadow="false"
     showborder="true"
     inkscape:window-x="0"
     inkscape:window-y="27"
     inkscape:current-layer="layer1"
     width="16px"
     height="16px"
     showgrid="true"
     inkscape:window-maximized="1"
     inkscape:document-units="px"
     inkscape:snap-global="false">
    <inkscape:grid
       type="xygrid"
       id="grid4024" />
  </sodipodi:namedview>
  <defs
     id="defs3" />
  <sodipodi:namedview
     stroke="#ef2929"
     fill="#eeeeec"
     pagecolor="#ffffff"
     bordercolor="#666666"
     borderopacity="0.25490196"
     inkscape:pageopacity="0.0"
     inkscape:pageshadow="2"
     inkscape:zoom="1"
     inkscape:cx="-14.198652"
     inkscape:cy="-5.1663457"
     inkscape:current-layer="layer1"
     showgrid="false"
     inkscape:grid-bbox="true"
     inkscape:document-units="px"
     inkscape:showpageshadow="false"
     inkscape:window-width="872"
     inkscape:window-height="659"
     inkscape:window-x="403"
     inkscape:window-y="296"
     width="32px"
     height="32px"
     id="namedview73" />
  <metadata
     id="metadata4">
    <rdf:RDF>
      <cc:Work
         rdf:about="">
        <dc:format>image/svg+xml</dc:format>
        <dc:type
           rdf:resource="http://purl.org/dc/dcmitype/StillImage" />
        <dc:creator>
          <cc:Agent>
            <dc:title>Jakub Steiner</dc:title>
          </cc:Agent>
        </dc:creator>
        <dc:source>http://jimmac.musichall.cz</dc:source>
        <cc:license
           rdf:resource="http://creativecommons.org/licenses/by-sa/2.0/" />
        <dc:title />
      </cc:Work>
      <cc:License
         rdf:about="http://creativecommons.org/licenses/by-sa/2.0/">
        <cc:permits
           rdf:resource="http://web.resource.org/cc/Reproduction" />
        <cc:permits
           rdf:resource="http://web.resource.org/cc/Distribution" />
        <cc:requires
           rdf:resource="http://web.resource.org/cc/Notice" />
        <cc:requires
           rdf:resource="http://web.resource.org/cc/Attribution" />
        <cc:permits
           rdf:resource="http://web.resource.org/cc/DerivativeWorks" />
        <cc:requires
           rdf:resource="http://web.resource.org/cc/ShareAlike" />
      </cc:License>
    </rdf:RDF>
  </metadata>
  <g
     id="layer1"
     inkscape:label="Layer 1"
     inkscape:groupmode="layer">
    <g
       id="g4266">
      <g
         transform="matrix(1.0001054,0,0,0.99988465,-5.2337765e-5,0.00179285)"
         id="g4246">
        <g
           id="g4265-7"
           transform="matrix(-0.99978925,0,0,1.0033482,15.998314,-0.02763038)"
           style="fill:#729fcf">
          <path
             style="opacity:1;fill:#729fcf;fill-opacity:1;stroke:#204a87;stroke-width:0.94831336;stroke-linecap:square;stroke-linejoin:round;stroke-miterlimit:0;stroke-dasharray:none;stroke-opacity:1;paint-order:stroke fill markers"
             d="M 0.47415668,0.50000006 7.5660183,1.8940746 7.6061932,14.105925 0.47415668,15.5 Z"
             id="rect4251-5"
             inkscape:connector-curvature="0"
             sodipodi:nodetypes="ccccc" />
          <path
             style="opacity:0.5;fill:#729fcf;fill-opacity:1;stroke:#ffffff;stroke-width:0.49921766;stroke-linecap:square;stroke-linejoin:round;stroke-miterlimit:0;stroke-dasharray:none;stroke-opacity:1;paint-order:stroke fill markers"
             d="M 1.0391243,1.1777366 7.0010551,2.4989452 V 13.501055 l -6.04228912,1.321209 z"
             id="rect4260-6"
             inkscape:connector-curvature="0"
             sodipodi:nodetypes="ccccc" />
          <path
             sodipodi:nodetypes="cccccccccc"
             id="path8347-1-5"
             d="M 4.1898254,7.2526761 H 6.374633 V 9.0020677 H 4.1898254 V 10.251633 H 3.4615567 L 1.3503053,8.0024153 3.4615567,6.0031107 h 0.7282687 z"
             style="fill:#ffffff;fill-opacity:1;fill-rule:evenodd;stroke:#3465a4;stroke-width:0.49700001;stroke-linecap:butt;stroke-linejoin:miter;stroke-miterlimit:4;stroke-dasharray:none;stroke-opacity:1"
             inkscape:connector-curvature="0" />
        </g>
        <g
           id="g4265">
          <rect
             y="1.9741571"
             x="0.47415668"
             height="12.051686"
             width="7.0516868"
             id="rect4251"
             style="opacity:1;fill:#3465a4;fill-opacity:1;stroke:#204a87;stroke-width:0.94831336;stroke-linecap:square;stroke-linejoin:round;stroke-miterlimit:0;stroke-dasharray:none;stroke-opacity:1;paint-order:stroke fill markers" />
          <path
             sodipodi:nodetypes="cccccccccc"
             id="path8347-1"
             d="M 4.1898254,7.2526761 H 6.374633 V 9.0020677 H 4.1898254 V 10.251633 H 3.4615567 L 1.3503053,8.0024153 3.4615567,6.0031107 h 0.7282687 z"
             style="fill:#ffffff;fill-opacity:1;fill-rule:evenodd;stroke:#3465a4;stroke-width:0.49673396;stroke-linecap:butt;stroke-linejoin:miter;stroke-miterlimit:4;stroke-dasharray:none;stroke-opacity:1"
             inkscape:connector-curvature="0" />
          <rect
             y="2.4989452"
             x="0.99894512"
             height="11.00211"
             width="6.00211"
             id="rect4260"
             style="opacity:0.5;fill:none;fill-opacity:1;stroke:#ffffff;stroke-width:0.49789023;stroke-linecap:square;stroke-linejoin:round;stroke-miterlimit:0;stroke-dasharray:none;stroke-opacity:1;paint-order:stroke fill markers" />
        </g>
      </g>
    </g>
  </g>
</svg>
